X: 1
T: Orvetta Waltz
C: E.B.Spencer 1879
R: waltz
N: "Composed and Dedicated to Miss Mary E.R.Johann by E.B.Spencer"
N: Publisher: Boston: Ditson, Oliver, 1879.
Z: 2009 John Chambers <jc:trillian.mit.edu>
S: http://lcweb2.loc.gov/cgi-bin/query/S?ammem/mussm:@OR(@field(TITLE+@od1(Orvetta+waltz++))+@field(ALTTITLE+@od1(Orvetta+waltz++)))
F: http://memory.loc.gov/music/sm/sm1879/11900/11920/002.tif
N: Original in 3/8 meter, notes half this length.
M: 3/4
L: 1/8
K: Ab
"A"\
|: "Ab"E3 FED | C6 | "Db"A3 BAG | F6 \
|  "Eb"B3 cBA | G2 g2 f2 \
|1,3 "Eb7"e3 fed | c6 \
:|2,4 "Ab"e2 cc' b2 | [a6c6] :|
"B"\
|: "Ab"[c3A3] [cA][cA][cA] | [c2A2] [B2G2] [A2F2] \
|  "Db"[F3D3] [FD][FD][FD] | [F2D2] [G2E2] [A2F2] \
|  "Eb"[B3G3] [BG][BG][BG] | "Eb7"[B2G2] [d2B2] [d2B2] \
|1,3 "Db"[f3d3] [fd][fd][fd] | "Ab"[e4c4] z2 \
:|2,4 "Ab"[c4E4] [B2D2] | [A4C4] z2 :|
"C"\
|: "Ab"E4 CE | "Db"A4 z2 | F4 DF | "Eb"B4 z2 \
|1,3 "Eb"B3 cBA | G2 g2 f2 | "Eb7"e2 fe d2 | "Ab"c4 z2 \
:|2,4 "Eb"Bc BA GA | G2 g2 f2 | "Ab"e2 cc' b2 | [a4c4] z2 :|
"D"\
|: "Ab"[c3c'3] [cc'][cc'][cc'] | [c2c'2] [B2b2] [A2a2] \
|  "Db"[F3f3] [Ff][Ff][Ff] | [F2f2] [G2g2] [A2a2] \
|  "Eb"[B3b3] [Bb][Bb][Bb] \
|1,3 [B2b2] [c2c'2] [d2d'2] |  "Db"[f3f'3] [ff'][ff'][ff'] | "Ab"[e4e'4] z2 \
:|2,4 "Eb7"[B2b2] [d2d'2] [d2d'2] |  "Ab"[c4c'4] [B2b2] | [A4a4] z2 :|
"E"\
|::: "Fm"C3 FAB | c4 B2 | "C"A3  BAG | "Fm"F6 \
|    "Fm"C3 FAB | c4 B2 | "C"A4  G2 | "Fm"F6 :::|
P: A
P: B
"F"\
|: "Ab"E4 (3CEA | c6 | "Db"A4 (3FAd | f6 | "Eb"B4 (3GBe \
|1,3 g4 f2 | "Eb7"e4 d2 | "Ab"c6 \
:|2,4 "Eb7"g4 fe | "Ab"c2 c'2 b2 | [a4c4] z2 :|
P: D


%%sep 1 1 500

%%sep 1 1 500

